static/assets/images/networks/fantom.svg

<svg xmlns="http://www.w3.org/2000/svg" fill="none" viewBox="0 0 512 512"><path fill="#13B5EC" d="M256 512c141.385 0 256-114.615 256-256S397.385 0 256 0 0 114.615 0 256s114.615 256 256 256"/><path fill="#fff" fill-rule="evenodd" d="m278.528 199.677 66.816-38.955v77.911zm66.816 166.954-89.088 51.941-89.088-51.941v-90.897l89.088 51.941 89.088-51.941zM167.168 160.722l66.816 38.955-66.816 38.956zm100.224 57.506 66.816 38.956-66.816 38.955zm-22.272 77.911-66.816-38.955 66.816-38.956zm89.088-153.968-77.952 44.521-77.952-44.521 77.952-46.375zm-189.312-7.42v243.01l111.36 63.071 111.36-63.071v-243.01L256.256 71.68z" clip-rule="evenodd"/></svg>

<svg width="512" height="512" viewBox="0 0 512 512" fill="none" xmlns="http://www.w3.org/2000/svg">
<path d="M256 512C397.385 512 512 397.385 512 256C512 114.615 397.385 0 256 0C114.615 0 0 114.615 0 256C0 397.385 114.615 512 256 512Z" fill="#13B5EC"/>
<path fill-rule="evenodd" clip-rule="evenodd" d="M278.528 199.677L345.344 160.722V238.633L278.528 199.677ZM345.344 366.631L256.256 418.572L167.168 366.631V275.734L256.256 327.675L345.344 275.734V366.631ZM167.168 160.722L233.984 199.677L167.168 238.633V160.722ZM267.392 218.228L334.208 257.184L267.392 296.139V218.228ZM245.12 296.139L178.304 257.184L245.12 218.228V296.139ZM334.208 142.171L256.256 186.692L178.304 142.171L256.256 95.7955L334.208 142.171ZM144.896 134.751V377.761L256.256 440.832L367.616 377.761V134.751L256.256 71.68L144.896 134.751Z" fill="white"/>
</svg>
